src/packages/tokens/img/dai.svg

<svg width="24" height="24" viewBox="0 0 24 24" fill="none" xmlns="http://www.w3.org/2000/svg">
<g clip-path="url(#clip0_8_2954)">
<path d="M12 0C18.628 0 24 5.37305 24 12C24 18.628 18.628 24 12 24C5.37305 24 0 18.6275 0 12C0 5.37305 5.37305 0 12 0Z" fill="#F5AC37"/>
<path d="M12.4424 12.8472H17.0022C17.0994 12.8472 17.1453 12.8472 17.1524 12.7198C17.1896 12.2559 17.1896 11.7894 17.1524 11.325C17.1524 11.2348 17.1075 11.1975 17.0098 11.1975H7.93502C7.82269 11.1975 7.79245 11.2348 7.79245 11.3401V12.675C7.79245 12.8472 7.79245 12.8472 7.97228 12.8472H12.4424ZM16.6431 9.63745C16.6561 9.60343 16.6561 9.56617 16.6431 9.53269C16.567 9.36691 16.4768 9.20869 16.3721 9.06019C16.2144 8.80639 16.0286 8.57256 15.8169 8.3625C15.717 8.2356 15.6015 8.12166 15.4719 8.025C14.8228 7.47257 14.0511 7.08161 13.2217 6.88505C12.8032 6.79108 12.3755 6.74626 11.9467 6.75004H7.91936C7.80703 6.75004 7.79191 6.79486 7.79191 6.89261V9.55483C7.79191 9.66715 7.79191 9.69739 7.93448 9.69739H16.5891C16.5891 9.69739 16.6642 9.68227 16.6793 9.63745H16.6426H16.6431ZM16.6431 14.4073C16.5157 14.3933 16.3872 14.3933 16.2597 14.4073H7.94258C7.83025 14.4073 7.79245 14.4073 7.79245 14.5574V17.1603C7.79245 17.2802 7.79245 17.3104 7.94258 17.3104H11.7826C11.9662 17.3244 12.1498 17.3115 12.3296 17.2731C12.8869 17.2332 13.435 17.1122 13.9577 16.9129C14.1478 16.8471 14.3314 16.7612 14.5047 16.6581H14.5571C15.4573 16.1899 16.1885 15.4544 16.6496 14.5515C16.6496 14.5515 16.702 14.4381 16.6431 14.4084V14.4073ZM6.2853 18.6599V18.615V16.8676V16.2752V14.5126C6.2853 14.4149 6.2853 14.4003 6.16542 14.4003H4.53784C4.44766 14.4003 4.4104 14.4003 4.4104 14.2804V12.8553H6.1503C6.2475 12.8553 6.2853 12.8553 6.2853 12.7279V11.318C6.2853 11.2278 6.2853 11.2056 6.16542 11.2056H4.53784C4.44766 11.2056 4.4104 11.2056 4.4104 11.0857V9.76597C4.4104 9.68335 4.4104 9.66121 4.53028 9.66121H6.14274C6.25506 9.66121 6.2853 9.66121 6.2853 9.51865V5.47617C6.2853 5.35629 6.2853 5.32605 6.43542 5.32605H12.0601C12.4684 5.34225 12.8739 5.38707 13.2751 5.46105C14.1019 5.61387 14.8962 5.90926 15.6225 6.331C16.1042 6.6145 16.5476 6.95687 16.9423 7.35107C17.2393 7.65941 17.5072 7.99314 17.7448 8.34846C17.9807 8.70864 18.1768 9.09367 18.3307 9.49597C18.3496 9.60073 18.45 9.67147 18.5548 9.65365H19.8972C20.0695 9.65365 20.0695 9.65365 20.077 9.8189V11.049C20.077 11.1689 20.0322 11.1991 19.9118 11.1991H18.8766C18.7718 11.1991 18.7416 11.1991 18.7492 11.3342C18.7902 11.791 18.7902 12.2495 18.7492 12.7063C18.7492 12.8337 18.7492 12.8489 18.8923 12.8489H20.0765C20.1289 12.9164 20.0765 12.9839 20.0765 13.0519C20.0841 13.1388 20.0841 13.2269 20.0765 13.3138V14.2216C20.0765 14.349 20.0392 14.3868 19.9264 14.3868H18.5089C18.41 14.3679 18.3139 14.4311 18.2912 14.5294C17.9537 15.4069 17.4137 16.1937 16.716 16.8244C16.4612 17.0539 16.1933 17.2699 15.9136 17.4692C15.6134 17.642 15.3212 17.8218 15.0134 17.9643C14.4469 18.2192 13.8529 18.4071 13.2433 18.5265C12.6644 18.6302 12.0774 18.6771 11.4883 18.669H6.28314V18.6615L6.2853 18.6599Z" fill="#FEFEFD"/>
</g>
<defs>
<clipPath id="clip0_8_2954">
<rect width="24" height="24" fill="white"/>
</clipPath>
</defs>
</svg>

<svg xmlns="http://www.w3.org/2000/svg" width="24" height="24" fill="none" xmlns:v="https://vecta.io/nano"><g clip-path="url(#A)"><path d="M12 0c6.628 0 12 5.373 12 12a12 12 0 0 1-12 12C5.373 24 0 18.628 0 12S5.373 0 12 0z" fill="#f5ac37"/><path d="M12.442 12.847h4.56c.097 0 .143 0 .15-.127a8.73 8.73 0 0 0 0-1.395c0-.09-.045-.127-.143-.127H7.935c-.112 0-.143.037-.143.143v1.335c0 .172 0 .172.18.172h4.47zm4.201-3.21c.013-.034.013-.071 0-.105-.076-.166-.166-.324-.271-.473-.158-.254-.343-.488-.555-.698a1.84 1.84 0 0 0-.345-.338 5.39 5.39 0 0 0-2.25-1.14c-.418-.094-.846-.139-1.275-.135H7.919c-.112 0-.127.045-.127.143v2.662c0 .112 0 .143.143.143h8.655s.075-.015.09-.06h-.037 0zm0 4.77c-.127-.014-.256-.014-.383 0H7.943c-.112 0-.15 0-.15.15v2.603c0 .12 0 .15.15.15h3.84c.184.014.367.001.547-.037.557-.04 1.105-.161 1.628-.36.19-.066.374-.152.547-.255h.052a4.87 4.87 0 0 0 2.092-2.107s.052-.113-.006-.143v-.001zM6.285 18.66v-.045-1.747-.592-1.763c0-.098 0-.112-.12-.112H4.538c-.09 0-.127 0-.127-.12v-1.425h1.74c.097 0 .135 0 .135-.127v-1.41c0-.09 0-.112-.12-.112H4.538c-.09 0-.127 0-.127-.12v-1.32c0-.083 0-.105.12-.105h1.612c.112 0 .143 0 .143-.143V5.476c0-.12 0-.15.15-.15h5.625a8.57 8.57 0 0 1 1.215.135 7.33 7.33 0 0 1 2.347.87c.482.283.925.626 1.32 1.02.297.308.565.642.803.997a6.02 6.02 0 0 1 .586 1.148c.019.105.119.175.224.158h1.342c.172 0 .172 0 .18.165v1.23c0 .12-.045.15-.165.15h-1.035c-.105 0-.135 0-.127.135a7.67 7.67 0 0 1 0 1.372c0 .127 0 .143.143.143h1.184c.052.067 0 .135 0 .203.008.087.008.175 0 .262v.908c0 .127-.037.165-.15.165h-1.418c-.099-.019-.195.044-.218.143-.337.877-.878 1.664-1.575 2.295a9.03 9.03 0 0 1-.802.645l-.9.495c-.567.255-1.161.443-1.77.562-.579.104-1.166.151-1.755.143H6.283v-.008l.002-.002z" fill="#fefefd"/></g><defs><clipPath id="A"><path fill="#fff" d="M0 0h24v24H0z"/></clipPath></defs></svg>
